X:1
T:Eugowra Rocks
M:2/4
L:1/8
K:F
 D| DA AG| F D2 A/2A/2| dd dc| A3 A| AA AG| FE DC| DE FG| A3| F| DA AG|\
 F D2 A| d3/2 d/2 cA| G2 FG| AD FD| AD FD| AG FE| D2| DD| DA AG| F D2 A|\
 d3/2 d/2 cA| G2 FG| AD FD| AD FG| AG FE| D3||
